.icons/oomox-ad/16x16/apps/reddit.svg

<svg xmlns="http://www.w3.org/2000/svg" width="16" height="16" version="1.1">
 <circle style="fill:#ff5836" cx="8" cy="8" r="8"/>
 <path style="fill:#ffffff" d="m 8.4995278,3.0000854 a 0.50005002,0.49997122 0 0 0 -0.046874,0.00195 0.50005002,0.49997122 0 0 0 -0.451172,0.427667 L 7.6362471,6.0171854 A 4.0000003,3.4994487 0 0 0 4.8022626,7.4056384 1,0.99984245 0 0 0 3.999528,7.0014053 1,0.99984245 0 0 0 2.9995279,8.0012476 1,0.99984245 0 0 0 3.999528,9.0010904 a 1,0.99984245 0 0 0 0.046875,-0.00195 4.0000003,3.4994487 0 0 0 -0.046875,0.501874 4.0000003,3.4994487 0 0 0 4.0000002,3.4994486 4.0000003,3.4994487 0 0 0 3.9999998,-3.4994486 4.0000003,3.4994487 0 0 0 -0.04493,-0.501874 1,0.99984245 0 0 0 0.04493,0.00195 1,0.99984245 0 0 0 1,-0.9998428 1,0.99984245 0 0 0 -1,-0.9998423 A 1,0.99984245 0 0 0 11.196795,7.4056384 4.0000003,3.4994487 0 0 0 8.6421065,6.0523359 L 8.9233566,4.0956131 10.054217,4.3240926 a 1,0.99984245 0 0 0 0.945312,0.6776276 1,0.99984245 0 0 0 1,-0.9998424 1,0.99984245 0 0 0 -1,-0.9998424 1,0.99984245 0 0 0 -0.75,0.3397902 L 8.5991372,3.0098495 a 0.50005002,0.49997122 0 0 0 -0.09961,-0.00976 z m -2.5,5.001165 H 6.4995276 6.9995277 V 8.5011718 9.0010932 H 6.4995276 5.9995278 V 8.5011718 Z m 3.0000002,0 H 9.4995278 9.9995279 V 8.5011718 9.0010932 H 9.4995278 8.999528 V 8.5011718 Z M 6.0014806,9.9911716 a 0.50005002,0.49997122 0 0 1 0.4199223,0.2362894 c 0,0 0.4465685,0.745037 1.5878907,0.775269 1.116651,0.0277 1.5644531,-0.759646 1.5644531,-0.759646 a 0.50006643,0.49998762 0 1 1 0.8554693,0.517497 c -1e-6,0 -0.8169763,1.280473 -2.44336,1.240039 C 6.3841439,11.95906 5.5796056,10.774251 5.5796056,10.774252 a 0.50005002,0.49997122 0 0 1 0.421875,-0.7830804 z"/>
</svg>

<svg xmlns="http://www.w3.org/2000/svg" width="16" height="16" version="1.1" viewBox="0 0 4.23 4.23">
 <g transform="translate(0,-292.76666)">
  <circle style="fill:#ff5836" cx="2.117" cy="294.883" r="2.117"/>
  <path style="fill:#ffffff" transform="matrix(0.26458333,0,0,0.26458333,0,292.76666)" d="M 8.5 2.9980469 A 0.50004998 0.50004998 0 0 0 8.453125 3 A 0.50004998 0.50004998 0 0 0 8.0019531 3.4277344 L 7.6367188 6.015625 A 3.9999998 3.5 0 0 0 4.8027344 7.4042969 A 0.99999996 0.99999996 0 0 0 4 7 A 0.99999996 0.99999996 0 0 0 3 8 A 0.99999996 0.99999996 0 0 0 4 9 A 0.99999996 0.99999996 0 0 0 4.046875 8.9980469 A 3.9999998 3.5 0 0 0 4 9.5 A 3.9999998 3.5 0 0 0 8 13 A 3.9999998 3.5 0 0 0 12 9.5 A 3.9999998 3.5 0 0 0 11.955078 8.9980469 A 0.99999996 0.99999996 0 0 0 12 9 A 0.99999996 0.99999996 0 0 0 13 8 A 0.99999996 0.99999996 0 0 0 12 7 A 0.99999996 0.99999996 0 0 0 11.197266 7.4042969 A 3.9999998 3.5 0 0 0 8.6425781 6.0507812 L 8.9238281 4.09375 L 10.054688 4.3222656 A 0.99999996 0.99999996 0 0 0 11 5 A 0.99999996 0.99999996 0 0 0 12 4 A 0.99999996 0.99999996 0 0 0 11 3 A 0.99999996 0.99999996 0 0 0 10.25 3.3398438 L 8.5996094 3.0078125 A 0.50004998 0.50004998 0 0 0 8.5 2.9980469 z M 6 8 L 6.5 8 L 7 8 L 7 8.5 L 7 9 L 6.5 9 L 6 9 L 6 8.5 L 6 8 z M 9 8 L 9.5 8 L 10 8 L 10 8.5 L 10 9 L 9.5 9 L 9 9 L 9 8.5 L 9 8 z M 6.0019531 9.9902344 A 0.50004998 0.50004998 0 0 1 6.421875 10.226562 C 6.421875 10.226562 6.8684435 10.971717 8.0097656 11.001953 C 9.1264168 11.029657 9.5742188 10.242188 9.5742188 10.242188 A 0.50006639 0.50006639 0 1 1 10.429688 10.759766 C 10.429687 10.759766 9.6127118 12.040441 7.9863281 12 C 6.3846161 11.958425 5.5800781 10.773437 5.5800781 10.773438 A 0.50004998 0.50004998 0 0 1 6.0019531 9.9902344 z"/>
 </g>
</svg>
